!!!ONB: MCCC : IJH0444_01 : Extracted Monophonic Melody
!!!COM: Haydn, Joseph
!!!OPR: String Quartet in E-flat major
!!!OMV: 1
!!!SCT: Hob.III:27 ; Op.17 No.3
!!!ODT: 1771///
**kern
*thru
*k[b-e-a-]
*E-:
*clefG
*M2/4
8b-
=1
8ee-
8b-
8.b-
32cc
32b-
=2
8g
16f
16e-
8d
16c
16B-
=3
8e-
8gg
8ee-
16dd
16cc
=4
4a-
8g
8b-
=5
8gg
8b-
8.bb-
32aa
32gg
=6
8ff
8b-
8.bb-
16ff#
=7
16.gg
32dd
16.ee-
32cc
8b-
16cc
16b-
=8
4b-
8r
8B-
=9
8.b-
32a-
32g
8f
8e
=10
8f
8a-
8g
8b-
=11
16a-
16f
8cc
8a-
16g
16f
=12
4e-
8d
8b-
=13
6..cc[
48cc]
16ff
16ff
16ff
=14
16ff
16b-
8.b-
16ee-
16ee-
16ee-
=15
16ee-
16a-
4a-
16cc
32b-
32a-
=16
8g
8a-
8b-
8cc
=17
8dd-
8dd-
8dd-
8dd-
=18
4dd-
4b
=19
16cc
32dd
32ee-
16cc
32b-
32a-
8g
8f
=20
4e-
8r
8b-
=21
24ee-
24gg
24ff
24ee-
24dd
24cc
24b-
24a
24b-
24cc
24b-
24a-
=22
24g
24b-
24a-
24g
24f
24e-
24d
24f
24e-
24d
24c
24B-
=23
24e-
24g
24b-
24dd
24ee-
24b-
24gg
24dd
24ee-
24gg
24g
24cc
=24
4a-
8g
8b-
=25
24gg
24ff#
24gg
24bb-
24gg
24ee-
24b-
24g
24e-
24bb-
24aa
24gg
=26
24ff
24ddd
24ccc
24bb-
24fff
24eee-
24ddd
24ccc
24bb-
24aa-
24gg
24ff
=27
24gg
24bb-
24aa
24gg
24ff
24ee-
8dd
8cc
=28
4b-
8r
8b-
=29
24gg
24bb-
24aa-
24gg
24ddd-
24ccc
24bb-
24aa-
24gg
24ff
24ee
24gg
=30
24ff
24cc
24cc
24cc
24cc
24cc
24cc
24b-
24cc
24dd-
24cc
24b-
=31
24a-
24e
24f
24A-
24c
24f
24a-
24cc
24b-
24a-
24g
24f
=32
4e-
8d
8b-
=33
24cc
24dd
24b
24cc
24dd
24b
24cc
24ee
24ff
24aa-
24ee
24ff
=34
24b-
24cc
24a
24b-
24cc
24a
24b-
24dd
24ee-
24gg
24dd
24ee-
=35
24a-
24b-
24g
24a-
24b-
24g
24a-
24aa-
24ff
24dd
24b-
24a-
=36
24g
24ee-
24ee-
24a-
24ee-
24ee-
24b-
24ee-
24ee-
24cc
24ee-
24ee-
=37
24ee-
24dd-
24ddd-
24bb-
24gg
24ee-
24dd-
24b-
24g
24e-
24d-
24b-
=38
4d-
8.dd-
16b
=39
16cc
32dd
32ee-
16cc
32b-
32a-
8g
8f
=40
4e-
8r
8b-
=41
8ee-
8bb-
8bb-
8bb-
=42
16bb-
16eee-
8.bb-
16bb-
16bb-
16bb-
=43
16bb-
16eee-
16bb-
16bb-
16bb-
16ggg
16eee-
32ddd
32ccc
=44
4aa-
8gg
8b-
=45
16gg
16bb-
16bb-
16bb-
8.bb-
32aa
32bb-
=46
16ff
16bb-
16bb-
16bb-
8.bb-
32aa
32bb-
=47
16gg
16ee-
16eee-
16ccc
8bb-
8aa
=48
4bb-
8r
8b-
=49
12..bb-[
96bb-]
32aa-
32gg
32ff
8ee
8gg
=50
8ff
8aa-
8gg
8bb-
=51
16aa-
16ff
8ccc
8aa-
16gg
16ff
=52
4ee-
8dd
8bb-
=53
6..ccc[
48ccc]
16ff
16ff
16ff
=54
16ff
16bb-
8.bb-
16ee-
16ee-
16ee-
=55
16ee-
16aa-
8.aa-
16a-
16a-
16a-
=56
8g
8a-
8b-
8cc
=57
8dd-
8dd-
8dd-
8dd-
=58
2dd-
=59
16cc
32dd
32ee-
16cc
32b-
32a-
8g
8f
=60
4e-
8r
8b-
=61
32ee-
32dd
32cc
32b-
32a-
32g
32f
32e-
32d
32e-
32f
32e-
32d
32c
32B-
32A-
=62
32G
32e-
32b-
32cc
32b-
32g
32f
32e-
32d
32e-
32f
32e-
32d
32c
32B-
32A-
=63
32G
32e-
32d
32e-
32g
32e-
32b-
32g
32ee-
32b-
32gg
32ff
32ee-
32dd
32cc
32b-
=64
4a-
8g
8b-
=65
32ee-
32dd
32cc
32b-
32a-
32g
32f
32e-
8.bb-
16gg
=66
32ff
32dd
32cc
32b-
32a
32g
32f
32e-
16d
16aa
16bb-
16ff#
=67
16gg
16b
16cc
16ee-
8f
8cc
=68
4b-
8r
8b-
=69
32bb-
32aa-
32gg
32aa-
32gg
32ff
32ee
32ff
16ee
16ee
16ee
16ee
=70
32a-
32cc
32ff
32ff
16.aa-
32f
32e
32cc
32gg
32gg
16.bb-
32gg
=71
32aa-
32ff
32ee
32ff
32gg
32ff
32aa-
32gg
32bb-
32aa-
32ddd
32ccc
32bb-
32aa-
32gg
32ff
=72
4ee-
16dd
16bb-
16bb-
16bb
=73
32ccc
32bb
32ccc
32bb
8.ccc
32ee
32ff
32ee
32ff
32ee
32ff
=74
32bb-
32aa
32bb-
32aa
8.bb-
32dd
32ee-
32dd
32ee-
32dd
32ee-
=75
32aa-
32gg
32aa-
32gg
8.aa-
32g
32a-
32g
32a-
32g
32a-
=76
32g
32ee-
32gg
32ee-
32a-
32ee-
32gg
32ee-
32b-
32ee-
32gg
32ee-
32cc
32ee-
32gg
32ee-
=77
32g
32ee-
32bb-
32ee-
32ddd-
32ee-
32bb-
32ee-
32g
32ee-
32bb-
32ee-
32ddd-
32ee-
32bb-
32ee-
=78
8ddd-
4ddd-
8bb
=79
32ccc
32ddd
32ddd
32eee-
16ccc
32bb-
32aa-
8gg
8ff
=80
4ee-
8r
8b-
=81
8ee-
8b-
8.b-
32cc
32b-
=82
8g
16f
16e-
8d
16c
16B-
=83
8e-
8gg
8ee-
16dd
16cc
=84
4a-
8g
8b-
=85
8gg
8b-
8.bb-
32aa
32gg
=86
8ff
8b-
8.bb-
16ff#
=87
16.gg
32dd
16.ee-
32cc
8b-
16.cc
32b-
=88
4b-
8r
8B-
=89
8.b-
32a-
32g
8f
8e
=90
8f
8a-
8g
8b-
=91
16a-
16f
8cc
8a-
16g
16f
=92
4e-
8d
8b-
=93
6..cc[
48cc]
16dd
16ee-
16ff
=94
16ff
16b-
8.b-
16cc
16dd
16ee-
=95
16ee-
16a-
4a-
16cc
32b-
32a-
=96
8g
8a-
8b-
8cc
=97
8dd-
8dd-
8dd-
8dd-
=98
4dd-
4b
=99
16cc
32dd
32ee-
16cc
32b-
32a-
8g
8f
=100
4e-
4r
==
*-
